icons/text-direction-l.svg

<svg xmlns="http://www.w3.org/2000/svg" width="24" height="24" fill="none"><g clip-path="url(#a)"><g><path fill="#121212" d="M11 5V15H9V11C7.93913 11 6.92172 10.5786 6.17157 9.82843C5.42143 9.07828 5 8.06087 5 7C5 5.93913 5.42143 4.92172 6.17157 4.17157C6.92172 3.42143 7.93913 3 9 3H17V5H15V15H13V5H11ZM9 5C8.46957 5 7.96086 5.21071 7.58579 5.58579C7.21071 5.96086 7 6.46957 7 7C7 7.53043 7.21071 8.03914 7.58579 8.41421C7.96086 8.78929 8.46957 9 9 9V5ZM17 17V14.5L21 18L17 21.5V19H5V17H17Z"/></g></g><defs><clipPath id="a"><rect width="24" height="24" fill="white"/></clipPath></defs></svg>

<svg width="24" height="24" fill="none" xmlns="http://www.w3.org/2000/svg"><g clip-path="url(#a)"><path d="M11 5v10H9v-4a4 4 0 1 1 0-8h8v2h-2v10h-2V5h-2ZM9 5a2 2 0 1 0 0 4V5Zm8 12v-2.5l4 3.5-4 3.5V19H5v-2h12Z" /></g><defs><clipPath id="a"><path fill="#fff" d="M0 0h24v24H0z"/></clipPath></defs></svg>
